X:1
T:Star of the County Down
C:Trad Irish (pre-1900)
S:Public domain (pre-1929 US)
M:4/4
L:1/8
Q:1/4=80
K:Dmix
H:D mixolydian (C natural). Irish flute's C-natural key is ideal for this tune.
H:Range D5-D6. One of the most-played session tunes in the Irish tradition.
d2 d2 f2 d2 | e4 d4 | G4 A2 B2 | d6 d2 |
d2 d2 f2 a2 | b4 a4 | g2 f2 e2 d2 | e8 |
d2 d2 f2 d2 | e4 d4 | G4 A2 B2 | d6 d2 |
d2 d2 f2 a2 | b4 a4 | g2 f2 e2 d2 | d8 |]
